X: 41046
T: Trip To Loughrea, The
R: polka
M: 2/4
K: Dmajor
|zc/B/|Ad dc/e/|fg af|b>a gf|ed Bc/B/|
Ad dc/e/|fg af|b>a gf|e2:|
eb|be eb|be eg|f>g af|ed BA|
be eb|be eg|f>g af|e2:|

